X: 64
T:Gan Ainm
M:4/4
L:1/8
R:Reel
D:Session tape - Corofin, Clare
Z:Benie Stocks
K:G
AB || cABG A3B | cABG AGEF | G2GF GABc | dBGB d2AB |\
cABG A3B | cABG AGEG | e3f gage | dBGB A4 |:a3b a3g |\
edef gedg |1 e3f g3f | edef gedg :|2 edef gage | dBGB A4 ||
<end>
<start>
